X: 35349
T: Rosie Clayton's
R: hornpipe
M: 4/4
K: Gmajor
(3GAB d2BAG2|(3GAB B2AGB2|(3BAG E2DED2|DEGA2 BG2|
(3GAB d2BAG2|(3GAB B2AGB2|(3BAG E2DEG2|DEGG BG (3ABd|
g2g>g edeg|g2e>d Bded|g2g>g eded|B>ADE GABd|
g2g>g edeg|g2e>d Bded|g2g>g eded|B>ADE G4||

